X:306
T:Sunday Sarabande
M:3/4
C:© Paul Gitlitz 2011
K:Em
d c(B|:"Em"E2)E3(G|"D"F2)F3(A|"Em"G2)G3(B|"Am"A)B cB A(F|!
"Em"G2)G3(B|"D"A2)A3(c|"Em"B)c "D"d(c BA)|"D"A(B A)(G FG)|!
"G"B2B3(D|"D"A2)A3(B|"Am"c2)d3e|"D"(fd) (ad) (fa)|!
"Em"b2a3(g|"D"a2)f3(f|"Em"g2) f2 e2|"D"f2 d2"Em"B2|!
"Am"c2e3(d|"Em"B2)G3(B|"D"A)B cB (Ad)|"Am"A(B A)(F AG)|!
"Em"E2E3(G|"D"F2)F3(A|"Em"G2)G3(B|"Am"A)B cB A(F|!
"Em"G2)G3(B|"D"A2)A3(c|"Em"B)c "D"d(c BG)|1"Am"A(B A)G F(G:|2"Em"E6|]
